!!!OTL: 81. Der Schwaebische Ritter an seinen Sohn.
!!!ODT: 1795 (Mel.)
!!!ARE: Europa, Mitteleuropa, Deutschland
!!!SCT: B0081
!!!TXL: @@DE
!!!YEM: Copyright 1995, estate of Helmut Schaffrath.
**kern	**text
*ICvox	*
*Ivox	*
*M4/4	*
*met(c)	*
*clefG2	*
*k[f#c#]	*
*D:	*
=1	=1
{4.d	Sohn,
8d	da
8.d	haſt
16d	du
8f#	mei-
8d	-nen
=2	=2
2a	Speer!
2r}	.
=3	=3
{4.a	Mei-
8a	-nem
8g#	Arm
8a	wird
8b	er
8a	ʒu
=4	=4
2f#	ſchwer.
2r}	.
=5	=5
{4.a	Nimm
8f#	den
8d	Schild
8f#	und
8a	dies
8dd	Ge-
=6	=6
(4cc#qq	.
2b)	-ſchoß,
4r}	.
{8g	tumm-
8b/	-le
=7	=7
4.b/	du
8a	ſort-
4.a	-hin
8g	mein
=8	=8
(4gqq	.
2f#)	Roß.
2r}	.
=9	=9
{4.a	Nimm
8b/	den
8cc#	Schild
8dd	und
8ee	dies
8dd	Ge-
=10	=10
(4cc#qq	.
2b)	-ſchoß,
4r}	.
{8g	tumm-
8b/	-le
=11	=11
4.b/	du
8a	ſort-
4.a	-hin
8c#	mein
=12	=12
2d	Roß!
2r}	.
==	==
!!!AGN: Helden -, Ehren -, Gedaechtnis -, Kriegs - Lied
!!!GTL: Helden- und Ehrengedächtnißlieder
!!!ONB: ESAC (Essen Associative Code) Database: BOEHME
!!!AMT: simple quadruple
!!!AIN: vox
!!!EED: Helmut Schaffrath
!!!EEV: 1.0
!!Texzt: Graf F. L. v. Stolberg
!!!URL-scan: https://archive.org/details/BoehmeVtLieder1895/page/n91/mode/2up
!!!ENC: Anna Maria Matuszewska
!!!EEV: 2024/14/06
*-	*-
